build/img/logo.svg

<svg width="191" height="45" viewBox="0 0 191 45" fill="none" xmlns="http://www.w3.org/2000/svg">
<g clip-path="url(#clip0)">
<path d="M86.2594 18.4567C93.1475 18.4567 98.128 23.377 98.128 30.0124C98.128 30.4615 98.0645 31.2782 98.0009 31.7273C97.9373 32.3602 97.4074 32.8094 96.814 32.8094H77.9514C78.2057 37.0356 82.0842 41.0168 86.7257 41.0168C89.4809 41.0168 91.7063 40.0164 93.211 39.1181C94.1224 38.6077 94.5251 38.3014 95.0549 38.9956C95.4576 39.506 95.7755 39.9347 96.1782 40.4451C96.6445 41.0168 96.8988 41.3843 95.9239 42.0785C94.3555 43.283 90.8161 44.9776 86.3018 44.9776C78.3753 44.9776 73.4583 38.9752 73.4583 31.7273C73.4159 24.5816 78.3329 18.4567 86.2594 18.4567ZM93.5925 29.257C93.4018 25.6024 90.2439 22.3154 86.2594 22.3154C81.8723 22.3154 78.4601 25.337 77.9938 29.257H93.5925Z" fill="#272A51"/>
<path d="M105.122 1.34764C105.122 0.714727 105.715 0.143066 106.372 0.143066H108.407C109.064 0.143066 109.657 0.714727 109.657 1.34764V20.0899C109.657 20.0899 112.349 18.4566 116.673 18.4566C124.536 18.4566 129.262 24.2549 129.262 31.6456C129.262 38.9139 124.027 44.9572 117.33 44.9572C112.413 44.9572 109.276 41.6089 109.276 41.6089L108.873 43.3034C108.746 43.8751 108.343 44.3038 107.75 44.3038H106.372C105.715 44.3038 105.122 43.7322 105.122 43.0993V1.34764ZM116.842 40.9964C121.632 40.9964 124.642 36.6477 124.642 31.7273C124.642 26.6844 121.759 22.7032 116.058 22.7032C112.455 22.7032 109.7 24.2141 109.7 24.2141V36.8314C109.7 36.8314 112.137 40.9964 116.842 40.9964Z" fill="#272A51"/>
<path d="M135.514 10.5758C135.514 8.88127 136.892 7.5542 138.587 7.5542C140.346 7.5542 141.724 8.88127 141.724 10.5758C141.724 12.2092 140.346 13.5362 138.587 13.5362C136.892 13.5362 135.514 12.2092 135.514 10.5758ZM136.425 20.2941C136.425 19.6612 137.019 19.0895 137.676 19.0895H139.711C140.368 19.0895 140.961 19.6612 140.961 20.2941V43.1401C140.961 43.773 140.368 44.3446 139.711 44.3446H137.676C137.019 44.3446 136.425 43.773 136.425 43.1401V20.2941Z" fill="#272A51"/>
<path d="M150.032 20.2941C150.032 19.6612 150.625 19.0896 151.282 19.0896H152.533C153.126 19.0896 153.444 19.3346 153.571 19.845L154.165 21.805C154.165 21.805 157.238 18.4567 162.685 18.4567C166.542 18.4567 169.361 19.9062 171.078 22.5604C171.395 22.3154 175.592 18.4567 180.848 18.4567C188.457 18.4567 191 23.2545 191 29.8082V43.1197C191 43.7526 190.406 44.3243 189.749 44.3243H187.651C186.994 44.3243 186.401 43.7526 186.401 43.1197V29.8082C186.401 25.0716 184.303 22.6829 180.509 22.6829C176.249 22.6829 173.43 25.3983 172.519 26.2149C172.709 27.297 172.837 28.4811 172.837 29.8082V43.1197C172.837 43.7526 172.243 44.3243 171.586 44.3243H169.488C168.831 44.3243 168.238 43.7526 168.238 43.1197V29.8082C168.238 25.0103 166.012 22.6829 162.007 22.6829C157.365 22.6829 154.546 26.2762 154.546 26.2762V43.1197C154.546 43.7526 153.953 44.3243 153.296 44.3243H151.261C150.604 44.3243 150.011 43.7526 150.011 43.1197V20.2941H150.032Z" fill="#272A51"/>
<path d="M69.8341 0C69.0711 0 68.4565 0.510411 68.2233 1.20457L68.1385 1.57207L67.312 5.51244C67.0577 6.81909 66.7397 8.20741 66.4218 9.57531L66.2735 10.2695C65.5317 13.5157 64.7475 16.8027 63.8997 20.0489C63.0096 23.5197 62.0135 26.8068 60.9962 29.7876C60.4027 31.523 59.7881 33.0542 59.1735 34.3405C58.8344 35.055 58.4953 35.7288 58.1138 36.3209C57.7323 36.9129 56.4607 39.5058 54.532 36.5863C54.1929 36.0759 53.8114 35.4634 53.3875 34.6875C51.8616 31.7884 50.5052 28.2564 49.3395 25.1939L48.4705 22.9072C47.5804 20.5389 46.669 18.1094 45.6517 15.6798C45.5458 15.4348 45.4398 15.1898 45.3338 14.9448C44.6768 13.4136 43.8714 11.617 42.8753 9.77948C42.3243 8.77907 41.7944 7.96241 41.2646 7.207C40.6923 6.43118 39.9929 5.55327 38.912 4.75703C38.3186 4.3487 37.7464 4.04246 37.1529 3.87912C36.4747 3.67496 35.7118 3.65454 35.0335 3.79746C34.3977 3.94037 33.7619 4.20579 33.1473 4.63453C32.575 5.02245 32.1512 5.45119 31.7485 5.87994C30.9219 6.81909 30.3497 7.73783 29.9046 8.53407C29.9046 8.53407 35.0759 7.83991 38.1703 12.9236C38.2126 12.9849 38.2338 13.0257 38.2762 13.0869C38.361 13.2503 38.467 13.4136 38.5517 13.5769C39.1664 14.8019 39.887 16.2107 40.6711 18.089C41.6037 20.3348 42.4938 22.6418 43.4264 25.0918C43.8079 26.0922 44.1893 27.0926 44.5708 28.093C45.1643 29.6243 45.8849 31.4413 46.6479 33.238C47.2413 34.6467 48.0678 36.525 49.1063 38.3829C49.509 39.0771 50.0389 40.0162 50.7171 40.935C51.2681 41.6904 51.9887 42.5887 53.006 43.3849C53.5571 43.7933 54.1081 44.0995 54.6804 44.3037C55.3374 44.5487 56.0792 44.6303 56.7362 44.5283C57.5628 44.4262 58.241 44.0995 58.6648 43.8341C59.1947 43.5074 59.7033 43.0991 60.106 42.6704C60.9962 41.7516 61.5684 40.8125 62.0559 39.9958C62.5221 39.1792 62.9672 38.3013 63.3911 37.3213C64.0693 35.7288 64.7051 34.0546 65.3409 32.013C66.4854 28.3993 67.312 24.8672 68.0326 21.5598C68.6896 18.5994 69.3042 15.3736 70.0036 11.4128L70.152 10.5961C70.3851 9.20782 70.6182 7.86033 70.8302 6.4516L71.4448 2.22539L71.5296 1.65373C71.5296 1.63332 71.5296 1.63332 71.5296 1.6129C71.5084 0.755409 70.7666 0 69.8341 0Z" fill="#272A51"/>
<path d="M29.946 8.49329C29.5009 9.28953 29.0982 10.2083 28.6531 11.2087C28.2716 12.0866 27.9325 12.9849 27.6146 13.8424L26.7457 16.4557C26.2158 18.1707 25.686 19.6815 25.1349 21.0494C24.5415 22.5602 23.8845 23.9281 23.2063 25.1327C22.6764 26.0514 21.8711 27.3172 20.8961 28.1747C20.0272 28.9097 19.2642 29.216 18.3741 29.216C17.5051 29.1956 16.4666 28.7464 15.4493 27.9297C14.6439 27.2968 13.7962 26.4189 12.8 25.1735C12.0371 24.1935 11.2529 23.0706 10.4687 21.8252C9.17587 19.6815 7.88304 17.2928 6.6114 14.6795C4.23768 9.77952 2.69052 5.55332 1.31291 1.98044C1.24933 1.77628 1.10097 1.63336 0.910229 1.5517C0.825453 1.53128 0.740677 1.51086 0.655902 1.51086C0.465156 1.51086 0.295604 1.5517 0.168441 1.6742C0.0624707 1.79669 -0.0434991 1.96003 -0.00111118 2.16419C0.0412767 2.30711 0.0624707 2.4296 0.104859 2.57252C1.07978 6.28831 2.45739 11.0862 4.42843 16.3332C5.25499 18.4973 6.39947 21.3761 7.90424 24.2752C8.66722 25.7452 9.4302 27.0518 10.2356 28.2564C11.2317 29.7672 12.2278 30.9514 13.3299 31.9722C14.0081 32.6051 14.6863 33.0951 15.3857 33.5034C16.2547 33.9934 17.0812 34.2997 17.8866 34.4222C18.7979 34.5651 19.7729 34.5038 20.663 34.218C21.5108 33.9526 22.3373 33.5238 23.1851 32.8909C24.8594 31.6047 26.0039 29.9918 26.8304 28.726C27.6994 27.3785 28.4836 25.9085 29.3525 23.9281C30.0095 22.4173 30.6666 20.7636 31.3236 18.8648L32.1713 16.5374C32.468 15.7615 32.7859 15.047 33.0827 14.3324C34.5874 10.5553 36.6009 10.392 38.2116 12.9645C35.0537 7.32955 29.946 8.49329 29.946 8.49329Z" fill="url(#paint0_linear)"/>
</g>
<defs>
<linearGradient id="paint0_linear" x1="-0.00111118" y1="18.0036" x2="38.2212" y2="18.0036" gradientUnits="userSpaceOnUse">
<stop stop-color="#28E2FF"/>
<stop offset="1" stop-color="#2E3192"/>
</linearGradient>
<clipPath id="clip0">
<rect width="191" height="44.9774" fill="white"/>
</clipPath>
</defs>
</svg>

<svg width="191" height="45" xmlns="http://www.w3.org/2000/svg">
    <g clip-path="url(#clip0)">
        <path d="M86.26 18.457c6.887 0 11.868 4.92 11.868 11.555 0 .45-.064 1.266-.127 1.715a1.197 1.197 0 01-1.187 1.082H77.951c.255 4.227 4.133 8.208 8.775 8.208 2.755 0 4.98-1 6.485-1.899.911-.51 1.314-.817 1.844-.122.403.51.72.939 1.123 1.45.466.57.72.938-.254 1.633-1.569 1.204-5.108 2.899-9.622 2.899-7.927 0-12.844-6.003-12.844-13.25-.042-7.146 4.875-13.271 12.801-13.271zm7.332 10.8c-.19-3.655-3.348-6.942-7.333-6.942-4.387 0-7.799 3.022-8.265 6.942h15.599zM105.122 1.348c0-.633.593-1.205 1.25-1.205h2.035c.657 0 1.25.572 1.25 1.205V20.09s2.692-1.633 7.016-1.633c7.863 0 12.589 5.798 12.589 13.189 0 7.268-5.235 13.311-11.932 13.311-4.917 0-8.054-3.348-8.054-3.348l-.403 1.694c-.127.572-.53 1-1.123 1h-1.378c-.657 0-1.25-.57-1.25-1.204V1.348zm11.72 39.648c4.79 0 7.8-4.348 7.8-9.269 0-5.043-2.883-9.024-8.584-9.024-3.603 0-6.358 1.511-6.358 1.511v12.617s2.437 4.165 7.142 4.165zM135.514 10.576c0-1.695 1.378-3.022 3.073-3.022 1.759 0 3.137 1.327 3.137 3.022 0 1.633-1.378 2.96-3.137 2.96-1.695 0-3.073-1.327-3.073-2.96zm.911 9.718c0-.633.594-1.204 1.251-1.204h2.035c.657 0 1.25.571 1.25 1.204V43.14c0 .633-.593 1.205-1.25 1.205h-2.035c-.657 0-1.251-.572-1.251-1.205V20.294zM150.032 20.294c0-.633.593-1.204 1.25-1.204h1.251c.593 0 .911.245 1.038.755l.594 1.96s3.073-3.348 8.52-3.348c3.857 0 6.676 1.45 8.393 4.103.317-.245 4.514-4.103 9.77-4.103 7.609 0 10.152 4.797 10.152 11.351V43.12c0 .633-.594 1.204-1.251 1.204h-2.098c-.657 0-1.25-.571-1.25-1.204V29.808c0-4.736-2.098-7.125-5.892-7.125-4.26 0-7.079 2.715-7.99 3.532.19 1.082.318 2.266.318 3.593V43.12c0 .633-.594 1.204-1.251 1.204h-2.098c-.657 0-1.25-.571-1.25-1.204V29.808c0-4.798-2.226-7.125-6.231-7.125-4.642 0-7.461 3.593-7.461 3.593V43.12c0 .633-.593 1.204-1.25 1.204h-2.035c-.657 0-1.25-.571-1.25-1.204V20.294h.021zM69.834 0c-.763 0-1.377.51-1.61 1.205l-.086.367-.826 3.94a117.63 117.63 0 01-.89 4.063l-.148.695a327.73 327.73 0 01-2.374 9.779c-.89 3.47-1.886 6.758-2.904 9.739-.593 1.735-1.208 3.266-1.823 4.552-.339.715-.678 1.389-1.06 1.98-.38.593-1.652 3.186-3.581.266-.34-.51-.72-1.123-1.144-1.898-1.526-2.9-2.883-6.432-4.048-9.494l-.87-2.287c-.89-2.368-1.801-4.798-2.818-7.227l-.318-.735c-.657-1.531-1.463-3.328-2.459-5.166-.55-1-1.08-1.817-1.61-2.572-.573-.776-1.272-1.654-2.353-2.45-.593-.408-1.166-.715-1.76-.878a4.388 4.388 0 00-2.119-.082 5.304 5.304 0 00-1.886.838c-.572.387-.996.816-1.398 1.245-.827.94-1.4 1.858-1.844 2.654 0 0 5.17-.694 8.265 4.39.043.06.064.102.106.163.085.163.191.327.276.49.614 1.225 1.335 2.634 2.12 4.512.932 2.246 1.822 4.553 2.754 7.003l1.145 3.001a177.176 177.176 0 002.077 5.145c.593 1.409 1.42 3.287 2.458 5.145.403.694.933 1.633 1.611 2.552.551.755 1.272 1.654 2.289 2.45a6.455 6.455 0 001.674.919 4.197 4.197 0 002.056.224 4.816 4.816 0 001.929-.694 7.21 7.21 0 001.441-1.164c.89-.918 1.462-1.858 1.95-2.674.466-.817.911-1.695 1.335-2.675a54.643 54.643 0 001.95-5.308c1.144-3.614 1.971-7.146 2.692-10.453.657-2.96 1.271-6.186 1.97-10.147l.149-.817c.233-1.388.466-2.736.678-4.144l.615-4.227.085-.571v-.041C71.508.755 70.767 0 69.834 0z"/>
        <path d="M29.946 8.493c-.445.797-.848 1.715-1.293 2.716-.381.878-.72 1.776-1.038 2.633l-.87 2.614a58.453 58.453 0 01-1.61 4.593 32.755 32.755 0 01-1.929 4.084c-.53.918-1.335 2.184-2.31 3.042-.869.735-1.632 1.041-2.522 1.041-.869-.02-1.907-.47-2.925-1.286-.805-.633-1.653-1.511-2.649-2.756a41.307 41.307 0 01-2.331-3.349A90.853 90.853 0 016.61 14.68c-2.373-4.9-3.92-9.127-5.298-12.7a.686.686 0 00-.403-.428 1.1 1.1 0 00-.254-.041c-.19 0-.36.04-.488.163-.106.123-.211.286-.17.49.043.143.064.266.107.409.975 3.715 2.352 8.513 4.323 13.76.827 2.164 1.971 5.043 3.476 7.942a41.545 41.545 0 002.332 3.981c.996 1.511 1.992 2.695 3.094 3.716a11.384 11.384 0 002.056 1.531c.869.49 1.695.797 2.5.92a6.1 6.1 0 002.777-.205c.848-.265 1.674-.694 2.522-1.327 1.674-1.286 2.819-2.9 3.645-4.165.87-1.348 1.654-2.817 2.523-4.798a69.766 69.766 0 001.97-5.063l.848-2.328c.297-.775.615-1.49.912-2.205 1.504-3.777 3.518-3.94 5.129-1.368-3.158-5.634-8.266-4.47-8.266-4.47z"/>
    </g>
    <defs>
        <linearGradient id="paint0_linear" x1="-.001" y1="18.004" x2="38.221" y2="18.004" gradientUnits="userSpaceOnUse">
            <stop stop-color="#28E2FF"/>
            <stop offset="1" stop-color="#2E3192"/>
        </linearGradient>
        <clipPath id="clip0">
            <path d="M0 0h191v44.977H0z"/>
        </clipPath>
    </defs>
</svg>
